build/img/catalog/boheme-scheme.svg

<svg width="284" height="46" viewBox="0 0 284 46" fill="none" xmlns="http://www.w3.org/2000/svg">
<rect x="1.5" y="1.5" width="55" height="34.236" rx="1.5" stroke="#07BBF0"/>
<path d="M12.6405 35.9213V26.7977L37.4944 1.31458" stroke="#07BBF0"/>
<path d="M1.31458 25.8539L27.1123 1.31458" stroke="#07BBF0"/>
<path d="M1.31458 14.8427L15.1573 1.31458" stroke="#07BBF0"/>
<path d="M24.91 35.9213V26.7977L47.8763 3.83142" stroke="#07BBF0"/>
<path d="M50.0786 35.9213V26.3734" stroke="#07BBF0"/>
<path d="M47.5618 4.14612L56.6854 4.14612" stroke="#07BBF0"/>
<path d="M50.0787 26.7977L57 26.7977" stroke="#07BBF0"/>
<path d="M12.6404 26.7978L1.31458 15.4719" stroke="#07BBF0"/>
<path d="M24.9102 26.4832L1.62927 3.20227" stroke="#07BBF0"/>
<path d="M38.1236 27.1123L12.0112 1.31458" stroke="#07BBF0"/>
<path d="M50.3933 26.7977L24.5956 1.31458" stroke="#07BBF0"/>
<path d="M50.0787 14.8427L34.9775 1.31458" stroke="#07BBF0"/>
<path d="M47.5618 4.14604V1.31458" stroke="#07BBF0"/>
<path d="M4.14612 45.3596V35.9214H8.86522V42.2135L6.97758 45.3596H4.14612Z" stroke="#07BBF0"/>
<path d="M54.7977 45.3596V35.9214H50.0786V42.2135L51.9663 45.3596H54.7977Z" stroke="#07BBF0"/>
<path d="M74 45.3595V36.2733H78.7191V42.2135L76.8315 45.3595H74Z" stroke="#07BBF0"/>
<path d="M199 45.3596V35.6622H203.719V42.2135L201.831 45.3596H199Z" stroke="#07BBF0"/>
<path d="M179.719 45.3596V36.2958H175V42.2135L176.888 45.3596H179.719Z" stroke="#07BBF0"/>
<path d="M249.719 45.3596V35.6733H245V42.2135L246.888 45.3596H249.719Z" stroke="#07BBF0"/>
<path d="M264 45.3595V35.5H268.719V42.2135L266.831 45.3595H264Z" stroke="#07BBF0"/>
<path d="M280.719 45.3596V35.5H276V42.2136L277.888 45.3596H280.719Z" stroke="#07BBF0"/>
<path d="M38.1237 35.9213V27.4269L50.0787 14.8427H56.6855" stroke="#07BBF0"/>
<path d="M84.3551 3V22.196C84.3551 23.3006 85.2505 24.196 86.3551 24.196H165.991C167.096 24.196 167.991 23.3006 167.991 22.196V3C167.991 1.89543 168.887 1 169.991 1H182C183.105 1 184 1.88981 184 2.99438V33.9463C184 35.0443 183.122 35.925 182.024 35.9336C170.008 36.0282 106.098 36.4915 70.9393 35.9491C69.8482 35.9322 69 35.0427 69 33.9514V3C69 1.89543 69.8954 1 71 1H82.3551C83.4597 1 84.3551 1.89543 84.3551 3Z" stroke="#07BBF0"/>
<path d="M124.173 18.3153H87.9886C86.8841 18.3153 85.9886 19.2108 85.9886 20.3153V20.8892C85.9886 21.9938 86.8841 22.8892 87.9886 22.8892H124.173C125.278 22.8892 126.173 21.9938 126.173 20.8892V20.3153C126.173 19.2108 125.278 18.3153 124.173 18.3153Z" stroke="#07BBF0"/>
<path d="M164.358 18.3153H130.46C129.356 18.3153 128.46 19.2108 128.46 20.3153V20.8892C128.46 21.9938 129.356 22.8892 130.46 22.8892H164.358C165.463 22.8892 166.358 21.9938 166.358 20.8892V20.3153C166.358 19.2108 165.463 18.3153 164.358 18.3153Z" stroke="#07BBF0"/>
<path d="M84.3551 3.94031L98.0767 18.3153" stroke="#07BBF0"/>
<path d="M93.1761 1L110.491 18.3153" stroke="#07BBF0"/>
<path d="M104.938 1L123.56 18.3153" stroke="#07BBF0"/>
<path d="M118.659 1L134.994 18.3153" stroke="#07BBF0"/>
<path d="M130.747 1L147.409 18.3153" stroke="#07BBF0"/>
<path d="M143.162 1L159.171 18.3153" stroke="#07BBF0"/>
<path d="M156.23 1L167.991 13.7415" stroke="#07BBF0"/>
<path d="M167.991 3.94031L154.27 18.3153" stroke="#07BBF0"/>
<path d="M159.17 1L141.855 18.3153" stroke="#07BBF0"/>
<path d="M147.409 1L128.787 18.3153" stroke="#07BBF0"/>
<path d="M133.688 1L117.352 18.3153" stroke="#07BBF0"/>
<path d="M121.599 1L104.938 18.3153" stroke="#07BBF0"/>
<path d="M109.185 1L93.1762 18.3153" stroke="#07BBF0"/>
<path d="M96.1165 1L84.3551 13.7415" stroke="#07BBF0"/>
<path d="M84.3551 1H167.991" stroke="#07BBF0"/>
<rect x="196.5" y="23.5" width="55" height="12.1478" rx="1.5" stroke="#07BBF0"/>
<path d="M196.5 28.56L201.247 24L206 28.56V36" stroke="#07BBF0"/>
<path d="M206 28.56L210.61 24L215 28.56V36" stroke="#07BBF0"/>
<path d="M215 28.56L219.61 24L224 28.56V36" stroke="#07BBF0"/>
<path d="M224 28.56L228.61 24L233 28.56V36" stroke="#07BBF0"/>
<path d="M233 28.56L238.122 24L243 28.56V36" stroke="#07BBF0"/>
<path d="M243 28.5L247 24L251.5 28.5" stroke="#07BBF0"/>
<rect x="262.5" y="15.5" width="20" height="20" rx="1.5" stroke="#07BBF0"/>
<path d="M269.583 15.2916L282.708 28.7083" stroke="#07BBF0"/>
<path d="M262.292 19.0834L272.5 29.2917" stroke="#07BBF0"/>
<path d="M275.417 15.2916L262.292 28.7083" stroke="#07BBF0"/>
<path d="M282.708 19.0834L272.5 29.2917" stroke="#07BBF0"/>
<path d="M272.5 29.2916V35.7083" stroke="#07BBF0"/>
</svg>

<svg width="284" height="46" fill="none" xmlns="http://www.w3.org/2000/svg"><rect x="1.5" y="1.5" width="55" height="34.236" rx="1.5" stroke="#07BBF0"/><path d="M12.64 35.921v-9.123L37.495 1.315M1.315 25.854l25.797-24.54M1.315 14.843L15.157 1.315m9.753 34.606v-9.123L47.876 3.83m2.203 32.091v-9.548M47.562 4.146h9.123m-6.606 22.652H57m-44.36 0L1.315 15.472M24.91 26.483L1.63 3.203m36.494 23.909L12.01 1.315m38.383 25.483L24.596 1.315m25.483 13.528L34.977 1.315m12.585 2.831V1.315M4.146 45.36v-9.44h4.72v6.293L6.977 45.36H4.146zm50.652 0v-9.44h-4.72v6.293l1.888 3.146h2.832zm19.202 0v-9.087h4.72v5.94l-1.888 3.146H74zm125 0v-9.698h4.719v6.552l-1.888 3.146H199zm-19.281 0v-9.064H175v5.918l1.888 3.146h2.831zm70 0v-9.687H245v6.54l1.888 3.147h2.831zm14.281 0V35.5h4.719v6.714l-1.888 3.145H264zm16.719 0V35.5H276v6.714l1.888 3.146h2.831zM38.124 35.921v-8.494l11.955-12.584h6.606M84.355 3v19.196a2 2 0 0 0 2 2h79.636a2 2 0 0 0 2-2V3a2 2 0 0 1 2-2H182c1.105 0 2 .89 2 1.994v30.952a1.983 1.983 0 0 1-1.976 1.988c-12.016.094-75.926.558-111.085.015-1.09-.017-1.939-.906-1.939-1.998V3a2 2 0 0 1 2-2h11.355a2 2 0 0 1 2 2z" stroke="#07BBF0"/><path d="M124.173 18.315H87.989a2 2 0 0 0-2 2v.574a2 2 0 0 0 2 2h36.184a2 2 0 0 0 2-2v-.574a2 2 0 0 0-2-2zm40.185 0H130.46a2 2 0 0 0-2 2v.574a2 2 0 0 0 2 2h33.898a2 2 0 0 0 2-2v-.574a2 2 0 0 0-2-2zM84.355 3.94l13.722 14.375M93.176 1l17.315 17.315M104.938 1l18.622 17.315M118.659 1l16.335 17.315M130.747 1l16.662 17.315M143.162 1l16.009 17.315M156.23 1l11.761 12.742m0-9.802L154.27 18.315M159.17 1l-17.315 17.315M147.409 1l-18.622 17.315M133.688 1l-16.336 17.315M121.599 1l-16.661 17.315M109.185 1L93.176 18.315M96.117 1L84.355 13.742m0-12.742h83.636" stroke="#07BBF0"/><rect x="196.5" y="23.5" width="55" height="12.148" rx="1.5" stroke="#07BBF0"/><path d="M196.5 28.56l4.747-4.56L206 28.56V36m0-7.44l4.61-4.56 4.39 4.56V36m0-7.44l4.61-4.56 4.39 4.56V36m0-7.44l4.61-4.56 4.39 4.56V36m0-7.44l5.122-4.56L243 28.56V36m0-7.5l4-4.5 4.5 4.5" stroke="#07BBF0"/><rect x="262.5" y="15.5" width="20" height="20" rx="1.5" stroke="#07BBF0"/><path d="M269.583 15.292l13.125 13.416m-20.416-9.625L272.5 29.292m2.917-14l-13.125 13.416m20.416-9.625L272.5 29.292m0 0v6.416" stroke="#07BBF0"/></svg>
